; generated by Slic3r 1.1.7 on 2015-06-17 at 18:29:42

; perimeters extrusion width = 0.40mm
; infill extrusion width = 0.42mm
; solid infill extrusion width = 0.42mm
; top infill extrusion width = 0.42mm
; support material extrusion width = 0.40mm

G21 ; set units to millimeters
M107
M190 S62 ; wait for bed temperature to be reached
M104 S215 ; set temperature
G28 ; home all axes
G1 Z5 F5000 ; lift nozzle

M109 S215 ; wait for temperature to be reached
G90 ; use absolute coordinates
G92 E0
M82 ; use absolute distances for extrusion
G1 F1800.000 E-1.00000
G92 E0
G1 Z0.350 F7800.000
G1 X18.886 Y18.886 F7800.000
G1 E1.00000 F1800.000
G1 X19.773 Y18.000 E1.11599 F1080.000
G1 X20.851 Y17.127 E1.24430
G1 X22.955 Y15.760 E1.47633
G1 X24.191 Y15.130 E1.60464
G1 X26.533 Y14.231 E1.83668
G1 X27.873 Y13.872 E1.96497
G1 X30.134 Y13.514 E2.17671
G1 X31.389 Y13.398 E2.29326
G1 X149.649 Y13.480 E13.23120
G1 X152.127 Y13.872 E13.46323 F1080.000
G1 X153.466 Y14.231 E13.59153
G1 X155.809 Y15.130 E13.82357
G1 X157.045 Y15.760 E13.95188
G1 X159.149 Y17.127 E14.18391
G1 X160.227 Y18.000 E14.31222
G1 X162.001 Y19.773 E14.54424
G1 X162.874 Y20.852 E14.67255
G1 X164.240 Y22.956 E14.90458
G1 X164.870 Y24.192 E15.03289
G1 X165.769 Y26.534 E15.26492
G1 X166.128 Y27.874 E15.39323
G1 X166.602 Y31.389 E15.72135
G1 X166.520 Y149.650 E26.65943
G1 X166.127 Y152.128 E26.89143
G1 X165.769 Y153.465 E27.01948
G1 X164.871 Y155.808 E27.25153
G1 X164.239 Y157.046 E27.38012
G1 X162.873 Y159.150 E27.61214
G1 X162.000 Y160.227 E27.74031
G1 X160.227 Y162.001 E27.97233
G1 X159.150 Y162.873 E28.10049
G1 X157.046 Y164.240 E28.33251
G1 X155.807 Y164.871 E28.46110
G1 X153.465 Y165.769 E28.69316
G1 X152.128 Y166.128 E28.82121
G1 X148.611 Y166.602 E29.14942
G1 X30.350 Y166.520 E40.08751
G1 X27.872 Y166.128 E40.31951
G1 X26.535 Y165.769 E40.44757
G1 X24.193 Y164.871 E40.67962
G1 X22.954 Y164.240 E40.80820
G1 X20.850 Y162.873 E41.04023
G1 X19.773 Y162.001 E41.16839
G1 X18.000 Y160.227 E41.40041
G1 X17.127 Y159.150 E41.52858
G1 X15.761 Y157.046 E41.76060
G1 X15.129 Y155.808 E41.88919
G1 X14.231 Y153.465 E42.12125
G1 X13.873 Y152.128 E42.24929
G1 X13.398 Y148.611 E42.57751
G1 X13.480 Y30.352 E53.51546
G1 X13.872 Y27.874 E53.74750
G1 X14.231 Y26.534 E53.87580
G1 X15.130 Y24.192 E54.10783
G1 X15.760 Y22.956 E54.23614
G1 X17.126 Y20.852 E54.46818
G1 X17.999 Y19.773 E54.59648
G1 X18.844 Y18.929 E54.70696
G1 F1800.000 E53.70696
G92 E0
G1 X53.183 Y94.195 F7800.000
G1 E1.00000 F1800.000
G1 X50.939 Y94.551 E1.21013 F378.000
G1 X49.907 Y92.526 E1.42027
G1 X51.514 Y90.920 E1.63041
G1 X53.538 Y91.951 E1.84054
G1 X53.192 Y94.136 E2.04512
G1 X53.204 Y94.595 F7800.000
G1 F1800.000 E1.04512
G92 E0
G1 X84.556 Y127.175 F7800.000
G1 E1.00000 F1800.000
G1 X86.162 Y125.568 E1.21014 F378.000
G1 X88.186 Y126.599 E1.42027
G1 X87.831 Y128.843 E1.63040
G1 X85.587 Y129.199 E1.84054
G1 X84.583 Y127.228 E2.04512
G1 X84.304 Y126.864 F7800.000
G1 F1800.000 E1.04512
G92 E0
G1 X126.599 Y88.187 F7800.000
G1 E1.00000 F1800.000
G1 X125.568 Y86.162 E1.21013 F378.000
G1 X127.174 Y84.556 E1.42026
G1 X129.199 Y85.587 E1.63039
G1 X128.843 Y87.831 E1.84053
G1 X126.659 Y88.177 E2.04511
G1 X126.226 Y88.330 F7800.000
G1 F1800.000 E1.04511
G92 E0
G1 X94.195 Y53.183 F7800.000
G1 E1.00000 F1800.000
G1 X91.951 Y53.538 E1.21013 F378.000
G1 X90.920 Y51.514 E1.42027
G1 X92.526 Y49.908 E1.63040
G1 X94.550 Y50.939 E1.84053
G1 X94.204 Y53.124 E2.04512
G1 X94.216 Y53.582 F7800.000
G1 X103.637 Y62.757 F7800.000
G1 X141.249 Y25.145 E6.96479 F540.000
G1 X142.999 Y23.774 E7.17044
G1 X145.117 Y22.821 E7.38523
G1 X147.401 Y22.402 E7.60002
G1 X149.719 Y22.542 E7.81482
G1 X151.936 Y23.233 E8.02961
G1 X153.924 Y24.434 E8.24440
G1 X155.566 Y26.077 E8.45920
G1 X156.767 Y28.064 E8.67398
G1 X157.458 Y30.281 E8.88877
G1 X157.598 Y32.599 E9.10357
G1 X157.180 Y34.883 E9.31835
G1 X156.227 Y37.001 E9.53315
G1 X154.855 Y38.751 E9.73880
G1 X117.244 Y76.363 E14.65848
G1 X117.439 Y76.701 E14.69456
G1 X117.808 Y76.602 E14.72987
G1 X120.369 Y79.163 E15.06488
G1 X119.431 Y82.662 E15.39988
G1 X115.933 Y83.599 E15.73489
G1 X113.371 Y81.038 E16.06989
G1 X113.470 Y80.669 E16.10520
G1 X113.132 Y80.474 E16.14129
G1 X108.885 Y84.721 E16.69681
G1 X108.961 Y84.920 E16.71643
G1 X109.603 Y88.973 E17.09601
G1 X109.388 Y93.071 E17.47557
G1 X108.816 Y95.209 E17.68031
G1 X113.598 Y99.992 E18.30586
G1 X114.309 Y97.339 E18.55992
G1 X117.807 Y96.401 E18.89492
G1 X120.369 Y98.962 E19.22992
G1 X119.431 Y102.461 E19.56493
G1 X116.778 Y103.172 E19.81898
G1 X154.855 Y141.249 E24.79956
G1 X156.227 Y143.000 E25.00527
G1 X157.180 Y145.117 E25.22004
G1 X157.598 Y147.401 E25.43481
G1 X157.458 Y149.720 E25.64961
G1 X156.767 Y151.936 E25.86438
G1 X155.566 Y153.924 E26.07917
G1 X153.924 Y155.567 E26.29401
G1 X151.936 Y156.767 E26.50878
G1 X149.719 Y157.459 E26.72359
G1 X147.401 Y157.599 E26.93836
G1 X145.117 Y157.180 E27.15312
G1 X143.000 Y156.227 E27.36790
G1 X141.249 Y154.856 E27.57360
G1 X103.172 Y116.778 E32.55418
G1 X102.461 Y119.431 E32.80824
G1 X98.962 Y120.369 E33.14324
G1 X96.401 Y117.808 E33.47824
G1 X97.338 Y114.309 E33.81325
G1 X99.992 Y113.598 E34.06730
G1 X95.209 Y108.816 E34.69286
G1 X93.071 Y109.389 E34.89759
G1 X89.029 Y109.612 E35.27204
G1 X84.919 Y108.962 E35.65685
G1 X84.721 Y108.885 E35.67648
G1 X80.474 Y113.133 E36.23200
G1 X80.669 Y113.470 E36.26809
G1 X81.038 Y113.372 E36.30340
G1 X83.599 Y115.933 E36.63840
G1 X82.662 Y119.431 E36.97341
G1 X79.163 Y120.369 E37.30841
G1 X76.602 Y117.808 E37.64342
G1 X76.701 Y117.439 E37.67872
G1 X76.363 Y117.244 E37.71481
G1 X38.751 Y154.856 E42.63449
G1 X37.001 Y156.227 E42.84018
G1 X34.883 Y157.180 E43.05496
G1 X32.599 Y157.599 E43.26974
G1 X30.281 Y157.458 E43.48454
G1 X28.063 Y156.767 E43.69937
G1 X26.076 Y155.566 E43.91409
G1 X24.434 Y153.924 E44.12893
G1 X23.233 Y151.936 E44.34371
G1 X22.542 Y149.719 E44.55852
G1 X22.402 Y147.401 E44.77328
G1 X22.820 Y145.117 E44.98805
G1 X23.773 Y143.000 E45.20282
G1 X25.145 Y141.249 E45.40853
G1 X62.756 Y103.637 E50.32820
G1 X62.561 Y103.299 E50.36429
G1 X62.193 Y103.398 E50.39960
G1 X59.631 Y100.837 E50.73460
G1 X60.569 Y97.339 E51.06961
G1 X64.067 Y96.401 E51.40461
G1 X66.629 Y98.962 E51.73962
G1 X66.530 Y99.331 E51.77492
G1 X66.868 Y99.526 E51.81101
G1 X71.115 Y95.279 E52.36654
G1 X71.039 Y95.081 E52.38616
G1 X70.397 Y91.028 E52.76574
G1 X70.612 Y86.929 E53.14530
G1 X71.184 Y84.791 E53.35004
G1 X66.402 Y80.009 E53.97560
G1 X65.691 Y82.662 E54.22965
G1 X62.193 Y83.599 E54.56465
G1 X61.458 Y82.865 E54.66067
G1 X59.631 Y81.038 E54.89966
G1 X60.569 Y77.540 E55.23466
G1 X63.222 Y76.829 E55.48871
G1 X25.145 Y38.751 E60.46930
G1 X23.774 Y37.001 E60.67494
G1 X22.820 Y34.883 E60.88974
G1 X22.402 Y32.599 E61.10453
G1 X22.542 Y30.281 E61.31933
G1 X23.233 Y28.064 E61.53409
G1 X24.434 Y26.077 E61.74890
G1 X26.076 Y24.434 E61.96370
G1 X28.064 Y23.233 E62.17849
G1 X30.281 Y22.542 E62.39327
G1 X32.599 Y22.402 E62.60807
G1 X34.883 Y22.821 E62.82286
G1 X37.001 Y23.774 E63.03765
G1 X38.751 Y25.145 E63.24330
G1 X76.828 Y63.222 E68.22389
G1 X77.539 Y60.569 E68.47794
G1 X81.038 Y59.632 E68.81295
G1 X83.599 Y62.193 E69.14795
G1 X82.662 Y65.691 E69.48295
G1 X80.008 Y66.402 E69.73701
G1 X84.791 Y71.185 E70.36256
G1 X86.929 Y70.612 E70.56730
G1 X91.027 Y70.397 E70.94686
G1 X95.081 Y71.039 E71.32644
G1 X95.279 Y71.115 E71.34606
G1 X99.364 Y67.030 E71.88035
G1 X96.401 Y64.068 E72.26787
G1 X97.338 Y60.569 E72.60288
G1 X100.837 Y59.632 E72.93788
G1 X103.398 Y62.193 E73.27289
G1 X103.299 Y62.561 E73.30819
G1 X103.585 Y62.727 E73.33873
G1 F1800.000 E72.33873
G92 E0
G1 X114.828 Y97.858 F7800.000
G1 E1.00000 F1800.000
G1 X117.618 Y97.110 E1.26712 F540.000
G1 X119.660 Y99.152 E1.53424
G1 X118.912 Y101.942 E1.80136
G1 X116.123 Y102.689 E2.06848
G1 X114.080 Y100.647 E2.33560
G1 X114.812 Y97.915 E2.59717
G1 X115.347 Y98.376 F7800.000
G1 X117.428 Y97.819 E2.79641 F378.000
G1 X118.951 Y99.342 E2.99565
G1 X118.393 Y101.423 E3.19488
G1 X116.313 Y101.980 E3.39412
G1 X114.789 Y100.457 E3.59336
G1 X115.331 Y98.434 E3.78704
G1 X115.312 Y97.978 F7800.000
G1 F1800.000 E2.78704
G92 E0
G1 X97.857 Y114.828 F7800.000
G1 E1.00000 F1800.000
G1 X100.647 Y114.081 E1.26712 F540.000
G1 X102.689 Y116.123 E1.53424
G1 X101.942 Y118.912 E1.80136
G1 X99.152 Y119.660 E2.06848
G1 X97.110 Y117.618 E2.33560
G1 X97.842 Y114.886 E2.59717
G1 X98.376 Y115.347 F7800.000
G1 X100.457 Y114.790 E2.79641 F378.000
G1 X101.980 Y116.313 E2.99565
G1 X101.423 Y118.393 E3.19488
G1 X99.342 Y118.951 E3.39412
G1 X97.819 Y117.428 E3.59336
G1 X98.361 Y115.405 E3.78704
G1 X98.341 Y114.949 F7800.000
G1 F1800.000 E2.78704
G92 E0
G1 X65.172 Y82.143 F7800.000
G1 E1.00000 F1800.000
G1 X62.382 Y82.890 E1.26712 F540.000
G1 X61.908 Y82.416 E1.32919
G1 X60.340 Y80.848 E1.53424
G1 X61.088 Y78.059 E1.80136
G1 X63.877 Y77.311 E2.06848
G1 X65.920 Y79.353 E2.33560
G1 X65.188 Y82.085 E2.59717
G1 X64.653 Y81.624 F7800.000
G1 X62.572 Y82.181 E2.79641 F378.000
G1 X62.357 Y81.966 E2.82454
G1 X61.049 Y80.658 E2.99564
G1 X61.607 Y78.578 E3.19488
G1 X63.687 Y78.020 E3.39412
G1 X65.211 Y79.543 E3.59335
G1 X64.669 Y81.566 E3.78704
G1 X64.688 Y82.022 F7800.000
G1 F1800.000 E2.78704
G92 E0
G1 X82.143 Y65.172 F7800.000
G1 E1.00000 F1800.000
G1 X79.353 Y65.920 E1.26712 F540.000
G1 X77.311 Y63.878 E1.53424
G1 X78.058 Y61.088 E1.80136
G1 X80.848 Y60.341 E2.06848
G1 X82.890 Y62.383 E2.33560
G1 X82.158 Y65.114 E2.59717
G1 X81.624 Y64.653 F7800.000
G1 X79.543 Y65.211 E2.79641 F378.000
G1 X78.020 Y63.688 E2.99565
G1 X78.577 Y61.607 E3.19488
G1 X80.658 Y61.049 E3.39412
G1 X82.181 Y62.573 E3.59336
G1 X81.639 Y64.595 E3.78704
G1 X81.659 Y65.052 F7800.000
G1 X84.601 Y71.894 F7800.000
G1 X87.029 Y71.243 E4.01954 F540.000
G1 X90.994 Y71.035 E4.38675
G1 X94.915 Y71.656 E4.75397
G1 X95.436 Y71.856 E4.80559
G1 X101.653 Y65.640 E5.61869
G1 X101.458 Y65.302 E5.65478
G1 X99.328 Y65.873 E5.85865
G1 X99.328 Y66.096 E5.87935
G1 X97.110 Y63.878 E6.16955
G1 X97.857 Y61.088 E6.43668
G1 X100.647 Y60.340 E6.70380
G1 X102.689 Y62.383 E6.97092
G1 X102.071 Y64.688 E7.19169
G1 X102.409 Y64.883 E7.22777
G1 X141.671 Y25.622 E12.36330
G1 X143.330 Y24.322 E12.55826
G1 X145.307 Y23.432 E12.75877
G1 X147.440 Y23.041 E12.95928
G1 X149.604 Y23.172 E13.15980
G1 X151.674 Y23.817 E13.36032
G1 X153.529 Y24.938 E13.56083
G1 X155.062 Y26.471 E13.76135
G1 X156.183 Y28.327 E13.96186
G1 X156.828 Y30.396 E14.16237
G1 X156.959 Y32.560 E14.36289
G1 X156.568 Y34.693 E14.56340
G1 X155.679 Y36.670 E14.76392
G1 X154.379 Y38.329 E14.95887
G1 X115.117 Y77.591 E20.09440
G1 X115.312 Y77.929 E20.13048
G1 X117.618 Y77.311 E20.35125
G1 X119.660 Y79.353 E20.61837
G1 X118.912 Y82.143 E20.88549
G1 X116.123 Y82.890 E21.15262
G1 X114.080 Y80.848 E21.41974
G1 X114.698 Y78.543 E21.64051
G1 X114.360 Y78.348 E21.67659
G1 X108.144 Y84.564 E22.48970
G1 X108.344 Y85.085 E22.54132
G1 X108.965 Y89.006 E22.90854
G1 X108.757 Y92.971 E23.27575
G1 X108.107 Y95.399 E23.50825
G1 X154.379 Y141.671 E29.56073
G1 X155.679 Y143.331 E29.75574
G1 X156.569 Y145.308 E29.95623
G1 X156.959 Y147.440 E30.15672
G1 X156.828 Y149.604 E30.35725
G1 X156.183 Y151.674 E30.55775
G1 X155.062 Y153.529 E30.75826
G1 X153.529 Y155.062 E30.95881
G1 X151.673 Y156.183 E31.15932
G1 X149.604 Y156.829 E31.35983
G1 X147.440 Y156.959 E31.56034
G1 X145.308 Y156.569 E31.76083
G1 X143.331 Y155.679 E31.96133
G1 X141.671 Y154.379 E32.15633
G1 X95.399 Y108.107 E38.20882
G1 X92.971 Y108.757 E38.44132
G1 X89.006 Y108.965 E38.80853
G1 X85.085 Y108.344 E39.17574
G1 X84.564 Y108.144 E39.22737
G1 X78.347 Y114.360 E40.04047
G1 X78.542 Y114.698 E40.07656
G1 X80.848 Y114.081 E40.29732
G1 X82.890 Y116.123 E40.56444
G1 X82.143 Y118.912 E40.83156
G1 X79.353 Y119.660 E41.09868
G1 X77.311 Y117.618 E41.36580
G1 X77.929 Y115.312 E41.58657
G1 X77.591 Y115.117 E41.62265
G1 X38.329 Y154.379 E46.75817
G1 X36.669 Y155.679 E46.95318
G1 X34.692 Y156.569 E47.15368
G1 X32.560 Y156.959 E47.35418
G1 X30.396 Y156.829 E47.55470
G1 X28.326 Y156.183 E47.75524
G1 X26.471 Y155.062 E47.95571
G1 X26.271 Y154.863 E47.98182
G1 X24.938 Y153.529 E48.15626
G1 X23.817 Y151.674 E48.35676
G1 X23.172 Y149.604 E48.55728
G1 X23.041 Y147.440 E48.75779
G1 X23.431 Y145.308 E48.95828
G1 X24.321 Y143.331 E49.15877
G1 X25.621 Y141.671 E49.35378
G1 X64.883 Y102.410 E54.48930
G1 X64.688 Y102.072 E54.52539
G1 X62.382 Y102.689 E54.74615
G1 X60.340 Y100.647 E55.01328
G1 X61.088 Y97.858 E55.28039
G1 X63.877 Y97.110 E55.54751
G1 X65.920 Y99.152 E55.81464
G1 X65.302 Y101.458 E56.03540
G1 X65.640 Y101.653 E56.07149
G1 X71.856 Y95.437 E56.88459
G1 X71.656 Y94.916 E56.93622
G1 X71.035 Y90.994 E57.30343
G1 X71.243 Y87.029 E57.67064
G1 X71.893 Y84.601 E57.90314
G1 X25.621 Y38.329 E63.95563
G1 X24.321 Y36.670 E64.15058
G1 X23.432 Y34.693 E64.35110
G1 X23.041 Y32.560 E64.55161
G1 X23.172 Y30.396 E64.75213
G1 X23.817 Y28.327 E64.95263
G1 X24.938 Y26.471 E65.15315
G1 X26.471 Y24.938 E65.35367
G1 X28.326 Y23.817 E65.55418
G1 X30.396 Y23.172 E65.75470
G1 X32.560 Y23.041 E65.95522
G1 X34.693 Y23.432 E66.15573
G1 X36.670 Y24.322 E66.35624
G1 X38.329 Y25.621 E66.55120
G1 X84.559 Y71.851 E72.59814
G1 F1800.000 E71.59814
G92 E0
G1 X61.607 Y98.376 F7800.000
G1 E1.00000 F1800.000
G1 X63.687 Y97.819 E1.19924 F378.000
G1 X65.211 Y99.342 E1.39847
G1 X64.653 Y101.423 E1.59771
G1 X62.572 Y101.980 E1.79695
G1 X61.049 Y100.457 E1.99618
G1 X61.591 Y98.434 E2.18987
G1 X61.969 Y98.546 F7800.000
G1 F1800.000 E1.18987
G92 E0
G1 X78.577 Y115.347 F7800.000
G1 E1.00000 F1800.000
G1 X80.658 Y114.790 E1.19924 F378.000
G1 X82.181 Y116.313 E1.39847
G1 X81.624 Y118.393 E1.59771
G1 X79.543 Y118.951 E1.79694
G1 X78.020 Y117.428 E1.99618
G1 X78.562 Y115.405 E2.18987
G1 X78.940 Y115.516 F7800.000
G1 F1800.000 E1.18987
G92 E0
G1 X114.789 Y80.658 F7800.000
G1 E1.00000 F1800.000
G1 X115.347 Y78.578 E1.19924 F378.000
G1 X117.134 Y78.099 E1.37035
G1 X117.428 Y78.020 E1.39848
G1 X118.951 Y79.543 E1.59772
G1 X118.393 Y81.624 E1.79695
G1 X116.313 Y82.181 E1.99619
G1 X114.832 Y80.701 E2.18988
G1 X115.117 Y80.429 F7800.000
G1 F1800.000 E1.18988
G92 E0
G1 X101.423 Y64.653 F7800.000
G1 E1.00000 F1800.000
G1 X99.342 Y65.211 E1.19924 F378.000
G1 X97.819 Y63.688 E1.39848
G1 X98.376 Y61.607 E1.59772
G1 X100.457 Y61.049 E1.79695
G1 X101.980 Y62.573 E1.99619
G1 X101.438 Y64.595 E2.18988
G1 X101.060 Y64.484 F7800.000
G1 X84.411 Y72.603 F7800.000
G1 X87.129 Y71.874 E2.45015 F378.000
G1 X90.960 Y71.673 E2.80500
G1 X94.750 Y72.274 E3.15985
G1 X95.594 Y72.598 E3.24348
G1 X142.093 Y26.098 E9.32570
G1 X143.662 Y24.870 E9.50996
G1 X145.498 Y24.043 E9.69620
G1 X147.478 Y23.680 E9.88244
G1 X149.488 Y23.802 E10.06868
G1 X151.411 Y24.401 E10.25492
G1 X153.134 Y25.442 E10.44115
G1 X154.558 Y26.866 E10.62739
G1 X155.599 Y28.589 E10.81363
G1 X156.199 Y30.512 E10.99986
G1 X156.320 Y32.522 E11.18611
G1 X155.957 Y34.502 E11.37234
G1 X155.131 Y36.339 E11.55858
G1 X153.902 Y37.907 E11.74284
G1 X107.403 Y84.406 E17.82507
G1 X107.727 Y85.250 E17.90869
G1 X108.327 Y89.040 E18.26355
G1 X108.126 Y92.871 E18.61840
G1 X107.398 Y95.589 E18.87866
G1 X153.902 Y142.094 E24.96153
G1 X155.131 Y143.662 E25.14584
G1 X155.957 Y145.498 E25.33206
G1 X156.320 Y147.479 E25.51828
G1 X156.199 Y149.489 E25.70452
G1 X155.599 Y151.411 E25.89075
G1 X154.558 Y153.134 E26.07699
G1 X153.134 Y154.558 E26.26324
G1 X151.411 Y155.600 E26.44948
G1 X149.488 Y156.199 E26.63571
G1 X147.478 Y156.320 E26.82196
G1 X145.498 Y155.957 E27.00817
G1 X143.662 Y155.131 E27.19439
G1 X142.093 Y153.902 E27.37870
G1 X95.589 Y107.398 E33.46157
G1 X92.871 Y108.126 E33.72184
G1 X89.040 Y108.327 E34.07668
G1 X85.250 Y107.727 E34.43154
G1 X84.406 Y107.403 E34.51516
G1 X37.907 Y153.902 E40.59739
G1 X36.338 Y155.131 E40.78169
G1 X34.502 Y155.957 E40.96791
G1 X32.522 Y156.320 E41.15413
G1 X30.512 Y156.199 E41.34038
G1 X28.589 Y155.600 E41.52662
G1 X26.866 Y154.558 E41.71285
G1 X26.721 Y154.413 E41.73181
G1 X25.442 Y153.134 E41.89910
G1 X24.401 Y151.411 E42.08534
G1 X23.801 Y149.489 E42.27157
G1 X23.680 Y147.479 E42.45781
G1 X24.043 Y145.498 E42.64403
G1 X24.869 Y143.662 E42.83025
G1 X26.098 Y142.094 E43.01456
G1 X72.597 Y95.594 E49.09678
G1 X72.273 Y94.750 E49.18040
