; generated by Slic3r 1.1.7 on 2015-04-25 at 14:17:06

; perimeters extrusion width = 0.40mm
; infill extrusion width = 0.42mm
; solid infill extrusion width = 0.42mm
; top infill extrusion width = 0.42mm

G21 ; set units to millimeters
M107
M190 S62 ; wait for bed temperature to be reached
M104 S215 ; set temperature
G28 ; home all axes
G1 Z5 F5000 ; lift nozzle

M109 S215 ; wait for temperature to be reached
G90 ; use absolute coordinates
G92 E0
M82 ; use absolute distances for extrusion
G1 F1800.000 E-1.00000
G92 E0
G1 Z0.350 F7800.000
G1 X52.905 Y53.749 F7800.000
G1 E1.00000 F1800.000
G1 X54.658 Y52.267 E1.21230 F1080.000
G1 X56.811 Y51.472 E1.42459
G1 X58.000 Y51.364 E1.53502
G1 X122.000 Y51.364 E7.45444
G1 X124.261 Y51.761 E7.66674
G1 X126.251 Y52.905 E7.87903 F1080.000
G1 X127.733 Y54.658 E8.09133
G1 X128.528 Y56.811 E8.30362
G1 X128.636 Y58.000 E8.41405
G1 X128.636 Y122.000 E14.33347
G1 X128.239 Y124.261 E14.54577
G1 X127.095 Y126.251 E14.75806
G1 X125.342 Y127.733 E14.97036
G1 X123.189 Y128.528 E15.18266
G1 X122.000 Y128.636 E15.29308
G1 X58.000 Y128.636 E21.21250
G1 X55.739 Y128.239 E21.42480
G1 X53.749 Y127.095 E21.63710
G1 X52.267 Y125.342 E21.84939
G1 X51.472 Y123.189 E22.06169
G1 X51.364 Y122.000 E22.17211
G1 X51.364 Y58.000 E28.09153
G1 X51.761 Y55.739 E28.30383
G1 X52.875 Y53.801 E28.51058
G1 F1800.000 E27.51058
G92 E0
G1 X101.797 Y103.102 F7800.000
G1 E1.00000 F1800.000
G1 X98.815 Y105.268 E1.34089 F720.000
G1 X95.448 Y106.767 E1.68179
G1 X91.843 Y107.534 E2.02268
G1 X88.933 Y107.534 E2.29186
G1 X88.933 Y107.698 E2.30710
G1 X84.552 Y106.767 E2.72132
G1 X81.185 Y105.268 E3.06221
G1 X78.203 Y103.102 E3.40311
G1 X75.737 Y100.363 E3.74400
G1 X73.894 Y97.171 E4.08489
G1 X72.755 Y93.666 E4.42579
G1 X72.370 Y90.000 E4.76669
G1 X72.755 Y86.334 E5.10758
G1 X73.894 Y82.829 E5.44848
G1 X75.737 Y79.637 E5.78937
G1 X78.203 Y76.898 E6.13027
G1 X81.185 Y74.732 E6.47116
G1 X84.552 Y73.233 E6.81205
G1 X88.157 Y72.466 E7.15295
G1 X91.843 Y72.466 E7.49385
G1 X94.995 Y73.136 E7.79191
G1 X95.448 Y73.233 E7.83474 F720.000
G1 X98.815 Y74.732 E8.17564
G1 X101.797 Y76.898 E8.51653
G1 X104.263 Y79.637 E8.85742
G1 X106.106 Y82.829 E9.19832
G1 X107.245 Y86.334 E9.53921
G1 X107.630 Y90.000 E9.88011
G1 X107.245 Y93.666 E10.22100
G1 X106.106 Y97.171 E10.56190
G1 X104.263 Y100.363 E10.90279
G1 X101.837 Y103.057 E11.23814
G1 X101.369 Y102.627 F7800.000
G1 X98.496 Y104.715 E11.56667 F720.000
G1 X95.251 Y106.159 E11.89521
G1 X91.776 Y106.898 E12.22374
G1 X88.297 Y106.898 E12.54553
G1 X88.297 Y106.913 E12.54697
G1 X84.749 Y106.159 E12.88241
G1 X81.504 Y104.715 E13.21094
G1 X78.631 Y102.627 E13.53948
G1 X76.254 Y99.987 E13.86802
G1 X74.478 Y96.911 E14.19655
G1 X73.380 Y93.533 E14.52509
G1 X73.009 Y90.000 E14.85363
G1 X73.380 Y86.467 E15.18217
G1 X74.478 Y83.089 E15.51070
G1 X76.254 Y80.013 E15.83924
G1 X78.631 Y77.373 E16.16778
G1 X81.504 Y75.285 E16.49631
G1 X84.749 Y73.841 E16.82485
G1 X88.224 Y73.102 E17.15338
G1 X91.776 Y73.102 E17.48193 F720.000
G1 X95.251 Y73.841 E17.81046
G1 X98.496 Y75.285 E18.13900
G1 X101.369 Y77.373 E18.46753
G1 X103.746 Y80.013 E18.79607
G1 X105.522 Y83.089 E19.12461
G1 X106.620 Y86.467 E19.45314
G1 X106.991 Y90.000 E19.78168
G1 X106.620 Y93.533 E20.11022
G1 X105.522 Y96.911 E20.43876
G1 X103.746 Y99.987 E20.76729
G1 X101.409 Y102.582 E21.09028
G1 X100.942 Y102.152 F7800.000
G1 X98.176 Y104.161 E21.40646 F504.000
G1 X95.053 Y105.552 E21.72264
G1 X91.709 Y106.262 E22.03881
G1 X88.291 Y106.262 E22.35500
G1 X84.947 Y105.552 E22.67117
G1 X81.824 Y104.161 E22.98735
G1 X79.058 Y102.152 E23.30353
G1 X76.771 Y99.611 E23.61971
G1 X75.062 Y96.651 E23.93589
G1 X74.005 Y93.400 E24.25207
G1 X73.648 Y90.000 E24.56825
G1 X74.005 Y86.600 E24.88443
G1 X75.062 Y83.349 E25.20061
G1 X76.771 Y80.389 E25.51678
G1 X79.058 Y77.848 E25.83296
G1 X81.824 Y75.839 E26.14914
G1 X84.947 Y74.448 E26.46532
G1 X88.291 Y73.738 E26.78149
G1 X91.709 Y73.738 E27.09768
G1 X94.731 Y74.380 E27.38338
G1 X95.053 Y74.448 E27.41386 F504.000
G1 X98.176 Y75.839 E27.73003
G1 X100.942 Y77.848 E28.04621
G1 X103.229 Y80.389 E28.36239
G1 X104.938 Y83.349 E28.67857
G1 X105.995 Y86.600 E28.99475
G1 X106.352 Y90.000 E29.31093
G1 X105.995 Y93.400 E29.62711
G1 X104.938 Y96.651 E29.94329
G1 X103.229 Y99.611 E30.25947
G1 X100.982 Y102.107 E30.57009
G1 F1800.000 E29.57009
G92 E0
G1 X94.741 Y74.051 F7800.000
G1 X60.378 Y102.000 F7800.000
G1 E1.00000 F1800.000
G1 X62.189 Y98.863 E1.33500 F720.000
G1 X65.811 Y98.863 E1.67001
G1 X67.077 Y101.057 E1.90428
G1 X67.622 Y102.000 E2.00501
G1 X65.811 Y105.137 E2.34001
G1 X62.189 Y105.137 E2.67502
G1 X60.408 Y102.052 E3.00447
G1 X61.112 Y102.000 F7800.000
G1 X62.556 Y99.499 E3.27159 F720.000
G1 X65.444 Y99.499 E3.53872
G1 X66.527 Y101.375 E3.73904
G1 X66.888 Y102.000 E3.80584
G1 X65.444 Y104.501 E4.07295
G1 X62.556 Y104.501 E4.34008
G1 X61.142 Y102.052 E4.60165
G1 X61.846 Y102.000 F7800.000
G1 X62.923 Y100.135 E4.80088 F504.000
G1 X65.077 Y100.135 E5.00012
G1 X65.977 Y101.692 E5.16650
G1 X66.154 Y102.000 E5.19936
G1 X65.077 Y103.865 E5.39859
G1 X62.923 Y103.865 E5.59783
G1 X61.876 Y102.052 E5.79152
G1 X61.539 Y101.743 F7800.000
G1 X64.395 Y95.279 F7800.000
G1 X62.779 Y94.666 E5.95133 F720.000
G1 X60.980 Y92.635 E6.20231
G1 X60.330 Y90.000 E6.45331
G1 X60.980 Y87.365 E6.70431
G1 X62.779 Y85.334 E6.95529
G1 X65.317 Y84.372 E7.20630
G1 X67.491 Y84.636 E7.40892
G1 X68.010 Y84.699 E7.45728 F720.000
G1 X70.244 Y86.240 E7.70828
G1 X71.505 Y88.643 E7.95927
G1 X71.505 Y91.357 E8.21028
G1 X70.244 Y93.760 E8.46128
G1 X68.010 Y95.301 E8.71227
G1 X65.317 Y95.628 E8.96326
G1 X64.451 Y95.300 E9.04890
G1 X64.620 Y94.684 F7800.000
G1 X63.151 Y94.127 E9.19422 F720.000
G1 X61.559 Y92.331 E9.41622
G1 X60.985 Y90.000 E9.63824
G1 X61.559 Y87.669 E9.86026
G1 X63.151 Y85.873 E10.08226
G1 X65.012 Y85.167 E10.26632
G1 X65.396 Y85.021 E10.30428 F720.000
G1 X67.778 Y85.311 E10.52629
G1 X69.754 Y86.674 E10.74831
G1 X70.869 Y88.800 E10.97032
G1 X70.869 Y91.200 E11.19235
G1 X69.754 Y93.326 E11.41436
G1 X67.778 Y94.689 E11.63638
G1 X65.396 Y94.979 E11.85838
G1 X64.676 Y94.706 E11.92953
G1 X64.846 Y94.090 F7800.000
G1 X63.523 Y93.589 E12.06036 F504.000
G1 X62.139 Y92.026 E12.25339
G1 X61.640 Y90.000 E12.44643
G1 X62.139 Y87.974 E12.63946
G1 X63.523 Y86.411 E12.83249
G1 X65.474 Y85.671 E13.02553
G1 X67.338 Y85.898 E13.19917
G1 X67.546 Y85.923 E13.21856 F504.000
G1 X69.264 Y87.108 E13.41159
G1 X70.234 Y88.956 E13.60463
G1 X70.234 Y91.044 E13.79767
G1 X69.264 Y92.892 E13.99070
G1 X67.546 Y94.077 E14.18374
G1 X65.474 Y94.329 E14.37676
G1 X64.902 Y94.111 E14.43343
G1 F1800.000 E13.43343
G92 E0
G1 X67.370 Y85.690 F7800.000
G1 X60.378 Y78.000 F7800.000
G1 E1.00000 F1800.000
G1 X62.189 Y74.863 E1.33500 F720.000
G1 X65.811 Y74.863 E1.67001
G1 X67.077 Y77.057 E1.90428
G1 X67.622 Y78.000 E2.00501
G1 X65.811 Y81.137 E2.34002
G1 X62.189 Y81.137 E2.67502
G1 X60.408 Y78.052 E3.00448
G1 X61.112 Y78.000 F7800.000
G1 X62.556 Y75.499 E3.27159 F720.000
G1 X65.444 Y75.499 E3.53872
G1 X66.527 Y77.375 E3.73904
G1 X66.888 Y78.000 E3.80584
G1 X65.444 Y80.501 E4.07296
G1 X62.556 Y80.501 E4.34008
G1 X61.142 Y78.052 E4.60165
G1 X61.846 Y78.000 F7800.000
G1 X62.923 Y76.134 E4.80088 F504.000
G1 X65.077 Y76.134 E5.00012
G1 X65.977 Y77.692 E5.16651
G1 X66.154 Y78.000 E5.19936
G1 X65.077 Y79.866 E5.39859
G1 X62.923 Y79.866 E5.59783
G1 X61.876 Y78.052 E5.79152
G1 X61.539 Y77.743 F7800.000
G1 X65.403 Y62.838 F7800.000
G1 X64.067 Y61.000 E6.00165 F504.000
G1 X65.403 Y59.162 E6.21179
G1 X67.564 Y59.864 E6.42192
G1 X67.564 Y62.136 E6.63205
G1 X65.460 Y62.819 E6.83663
G1 X65.056 Y63.038 F7800.000
G1 X76.189 Y60.863 F7800.000
G1 X79.811 Y60.863 E7.17164 F720.000
G1 X81.622 Y64.000 E7.50665
G1 X79.811 Y67.137 E7.84165
G1 X76.189 Y67.137 E8.17666
G1 X74.378 Y64.000 E8.51166
G1 X76.159 Y60.915 E8.84112
G1 X76.556 Y61.499 F7800.000
G1 X79.444 Y61.499 E9.10824 F720.000
G1 X80.888 Y64.000 E9.37537
G1 X79.444 Y66.501 E9.64249
G1 X76.556 Y66.501 E9.90961
G1 X75.112 Y64.000 E10.17673
G1 X76.526 Y61.551 E10.43831
G1 X76.923 Y62.134 F7800.000
G1 X79.077 Y62.134 E10.63755 F504.000
G1 X80.154 Y64.000 E10.83678
G1 X79.077 Y65.866 E11.03602
G1 X76.923 Y65.866 E11.23526
G1 X75.846 Y64.000 E11.43450
G1 X76.893 Y62.186 E11.62819
G1 X76.992 Y61.741 F7800.000
G1 X84.804 Y64.077 F7800.000
G1 X84.980 Y63.365 E11.69601 F720.000
G1 X86.779 Y61.334 E11.94700
G1 X89.317 Y60.372 E12.19801
G1 X91.448 Y60.630 E12.39654
G1 X92.011 Y60.699 E12.44900 F720.000
G1 X94.244 Y62.240 E12.69999
G1 X95.505 Y64.643 E12.95099
G1 X95.505 Y67.357 E13.20198
G1 X94.244 Y69.760 E13.45298
G1 X92.010 Y71.301 E13.70398
G1 X89.317 Y71.628 E13.95496
G1 X86.779 Y70.666 E14.20597
G1 X84.980 Y68.635 E14.45696
G1 X84.330 Y66.000 E14.70795
G1 X84.790 Y64.135 E14.88557
G1 X85.421 Y64.229 F7800.000
G1 X85.559 Y63.669 E14.93891 F720.000
G1 X87.151 Y61.873 E15.16092
G1 X89.012 Y61.167 E15.34498
G1 X89.396 Y61.021 E15.38294 F720.000
G1 X91.778 Y61.311 E15.60495
G1 X93.754 Y62.674 E15.82696
G1 X94.869 Y64.800 E16.04898
G1 X94.869 Y67.200 E16.27099
G1 X93.754 Y69.326 E16.49301
G1 X91.778 Y70.689 E16.71503
G1 X89.396 Y70.979 E16.93703
G1 X87.151 Y70.127 E17.15906
G1 X85.559 Y68.331 E17.38106
G1 X84.985 Y66.000 E17.60308
G1 X85.407 Y64.288 E17.76621
G1 X86.039 Y64.381 F7800.000
G1 X86.139 Y63.974 E17.80505 F504.000
G1 X87.523 Y62.411 E17.99808
G1 X89.474 Y61.671 E18.19113
G1 X91.294 Y61.892 E18.36068
G1 X91.546 Y61.923 E18.38415 F504.000
G1 X93.264 Y63.108 E18.57719
G1 X94.234 Y64.956 E18.77022
G1 X94.234 Y67.044 E18.96326
G1 X93.264 Y68.892 E19.15630
G1 X91.546 Y70.077 E19.34933
G1 X89.474 Y70.329 E19.54236
G1 X87.523 Y69.589 E19.73540
G1 X86.139 Y68.026 E19.92843
G1 X85.640 Y66.000 E20.12146
G1 X86.024 Y64.440 E20.27010
G1 F1800.000 E19.27010
G92 E0
G1 X91.392 Y61.658 F7800.000
G1 X98.378 Y64.000 F7800.000
G1 E1.00000 F1800.000
G1 X100.189 Y60.863 E1.33501 F720.000
G1 X103.811 Y60.863 E1.67001
G1 X105.622 Y64.000 E2.00502
G1 X103.811 Y67.137 E2.34003
G1 X100.189 Y67.137 E2.67503
G1 X98.408 Y64.052 E3.00449
G1 X99.112 Y64.000 F7800.000
G1 X100.556 Y61.499 E3.27161 F720.000
G1 X103.444 Y61.499 E3.53873
G1 X104.888 Y64.000 E3.80586
G1 X103.444 Y66.501 E4.07298
G1 X100.556 Y66.501 E4.34010
G1 X99.142 Y64.052 E4.60167
G1 X99.846 Y64.000 F7800.000
G1 X100.923 Y62.134 E4.80091 F504.000
G1 X103.077 Y62.134 E5.00015
G1 X104.154 Y64.000 E5.19939
G1 X103.077 Y65.866 E5.39863
G1 X100.923 Y65.866 E5.59787
G1 X99.876 Y64.052 E5.79156
G1 X99.539 Y63.743 F7800.000
G1 F1800.000 E4.79156
G92 E0
G1 X113.067 Y61.000 F7800.000
G1 E1.00000 F1800.000
G1 X114.403 Y59.162 E1.21013 F504.000
G1 X116.564 Y59.864 E1.42027
G1 X116.564 Y62.136 E1.63040
G1 X114.403 Y62.838 E1.84053
G1 X113.103 Y61.049 E2.04512
G1 X112.770 Y60.732 F7800.000
G1 X112.378 Y78.000 F7800.000
G1 X114.189 Y74.863 E2.38012 F720.000
G1 X117.811 Y74.863 E2.71513
G1 X119.077 Y77.057 E2.94939
G1 X119.622 Y78.000 E3.05013
G1 X117.811 Y81.137 E3.38513
G1 X114.189 Y81.137 E3.72014
G1 X112.408 Y78.052 E4.04959
G1 X113.112 Y78.000 F7800.000
G1 X114.556 Y75.499 E4.31671 F720.000
G1 X117.444 Y75.499 E4.58383
G1 X118.527 Y77.375 E4.78416
G1 X118.888 Y78.000 E4.85095
G1 X117.444 Y80.501 E5.11807
G1 X114.556 Y80.501 E5.38519
G1 X113.142 Y78.052 E5.64677
G1 X113.846 Y78.000 F7800.000
G1 X114.923 Y76.134 E5.84600 F504.000
G1 X117.077 Y76.134 E6.04524
G1 X117.977 Y77.692 E6.21162
G1 X118.154 Y78.000 E6.24448
G1 X117.077 Y79.866 E6.44371
G1 X114.923 Y79.866 E6.64295
G1 X113.876 Y78.052 E6.83664
G1 X113.539 Y77.743 F7800.000
G1 X113.317 Y84.372 F7800.000
G1 X115.447 Y84.630 E7.03517 F720.000
G1 X116.011 Y84.699 E7.08763 F720.000
G1 X118.244 Y86.240 E7.33863
G1 X119.505 Y88.643 E7.58962
G1 X119.505 Y91.357 E7.84062
G1 X118.244 Y93.760 E8.09162
G1 X116.011 Y95.301 E8.34261
G1 X113.317 Y95.628 E8.59361
G1 X110.779 Y94.666 E8.84461
G1 X108.980 Y92.635 E9.09559
G1 X108.330 Y90.000 E9.34659
G1 X108.980 Y87.365 E9.59758
G1 X110.779 Y85.334 E9.84857
G1 X113.260 Y84.393 E10.09402
G1 X113.395 Y85.021 F7800.000
G1 X115.778 Y85.311 E10.31603 F720.000
G1 X117.754 Y86.674 E10.53805
G1 X118.869 Y88.800 E10.76006
G1 X118.869 Y91.200 E10.98208
G1 X117.754 Y93.326 E11.20410
G1 X115.778 Y94.689 E11.42611
G1 X113.395 Y94.979 E11.64813
G1 X111.151 Y94.127 E11.87014
G1 X109.559 Y92.331 E12.09215
G1 X108.985 Y90.000 E12.31417
G1 X109.559 Y87.669 E12.53618
G1 X111.151 Y85.873 E12.75819
G1 X113.012 Y85.167 E12.94225
G1 X113.339 Y85.043 E12.97466 F720.000
G1 X113.474 Y85.671 F7800.000
G1 X115.294 Y85.892 E13.14422 F504.000
G1 X115.546 Y85.923 E13.16769 F504.000
G1 X117.264 Y87.108 E13.36073
G1 X118.234 Y88.956 E13.55376
G1 X118.234 Y91.044 E13.74680
G1 X117.264 Y92.892 E13.93983
G1 X115.546 Y94.077 E14.13287
G1 X113.474 Y94.329 E14.32590
G1 X111.523 Y93.589 E14.51894
G1 X110.139 Y92.026 E14.71197
G1 X109.640 Y90.000 E14.90500
G1 X110.139 Y87.974 E15.09804
G1 X111.523 Y86.411 E15.29106
G1 X113.418 Y85.693 E15.47855
G1 X115.429 Y85.677 F7800.000
G1 F1800.000 E14.47855
G92 E0
G1 X112.378 Y102.000 F7800.000
G1 E1.00000 F1800.000
G1 X114.189 Y98.863 E1.33500 F720.000
G1 X117.811 Y98.863 E1.67001
G1 X119.077 Y101.057 E1.90427
G1 X119.622 Y102.000 E2.00501
G1 X117.811 Y105.137 E2.34002
G1 X114.189 Y105.137 E2.67502
G1 X112.408 Y102.052 E3.00447
G1 X113.112 Y102.000 F7800.000
G1 X114.556 Y99.499 E3.27159 F720.000
G1 X117.444 Y99.499 E3.53872
G1 X118.527 Y101.375 E3.73904
G1 X118.888 Y102.000 E3.80583
G1 X117.444 Y104.501 E4.07295
G1 X114.556 Y104.501 E4.34008
G1 X113.142 Y102.052 E4.60165
G1 X113.846 Y102.000 F7800.000
G1 X114.923 Y100.135 E4.80088 F504.000
G1 X117.077 Y100.135 E5.00012
G1 X117.977 Y101.692 E5.16650
G1 X118.154 Y102.000 E5.19936
G1 X117.077 Y103.865 E5.39859
G1 X114.923 Y103.865 E5.59783
G1 X113.876 Y102.052 E5.79152
G1 X113.539 Y101.743 F7800.000
G1 X114.403 Y117.162 F7800.000
G1 X116.564 Y117.864 E6.00165 F504.000
G1 X116.564 Y120.136 E6.21179
G1 X114.403 Y120.838 E6.42192
G1 X113.067 Y119.000 E6.63205
G1 X114.368 Y117.210 E6.83664
G1 X114.565 Y116.797 F7800.000
G1 X105.622 Y116.000 F7800.000
G1 X103.811 Y119.137 E7.17165 F720.000
G1 X100.189 Y119.137 E7.50665
G1 X98.378 Y116.000 E7.84165
G1 X100.189 Y112.863 E8.17666
G1 X103.811 Y112.863 E8.51166
G1 X105.592 Y115.948 E8.84112
G1 X104.888 Y116.000 F7800.000
G1 X103.444 Y118.501 E9.10824 F720.000
G1 X100.556 Y118.501 E9.37536
G1 X99.112 Y116.000 E9.64248
G1 X100.556 Y113.499 E9.90960
G1 X103.444 Y113.499 E10.17672
G1 X104.858 Y115.948 E10.43829
G1 X104.154 Y116.000 F7800.000
G1 X103.077 Y117.865 E10.63752 F504.000
G1 X100.923 Y117.865 E10.83676
G1 X99.846 Y116.000 E11.03600
G1 X100.923 Y114.135 E11.23523
G1 X103.077 Y114.135 E11.43447
G1 X104.124 Y115.948 E11.62816
G1 X104.461 Y116.257 F7800.000
G1 F1800.000 E10.62816
G92 E0
G1 X95.505 Y115.357 F7800.000
G1 E1.00000 F1800.000
G1 X94.244 Y117.760 E1.25100 F720.000
G1 X92.010 Y119.301 E1.50199
G1 X89.317 Y119.628 E1.75298
G1 X86.779 Y118.666 E2.00398
G1 X84.980 Y116.635 E2.25497
G1 X84.330 Y114.000 E2.50596
G1 X84.980 Y111.365 E2.75696
G1 X86.779 Y109.334 E3.00795
G1 X89.317 Y108.372 E3.25895
G1 X91.447 Y108.630 E3.45748
G1 X92.011 Y108.699 E3.50994 F720.000
G1 X94.244 Y110.240 E3.76093
G1 X95.505 Y112.643 E4.01192
G1 X95.505 Y115.297 E4.25738
G1 X94.869 Y115.200 F7800.000
G1 X93.754 Y117.326 E4.47940 F720.000
G1 X91.778 Y118.689 E4.70141
G1 X89.396 Y118.979 E4.92342
G1 X87.151 Y118.127 E5.14544
G1 X85.559 Y116.331 E5.36745
G1 X84.985 Y114.000 E5.58946
G1 X85.559 Y111.669 E5.81148
G1 X87.151 Y109.873 E6.03349
G1 X88.980 Y109.179 E6.21436
G1 X89.396 Y109.021 E6.25551 F720.000
G1 X91.778 Y109.311 E6.47752
G1 X93.754 Y110.674 E6.69953
G1 X94.869 Y112.800 E6.92154
G1 X94.869 Y115.140 E7.13802
G1 X94.234 Y115.044 F7800.000
G1 X93.264 Y116.892 E7.33105 F504.000
G1 X91.546 Y118.077 E7.52409
G1 X89.474 Y118.329 E7.71711
G1 X87.523 Y117.589 E7.91016
G1 X86.139 Y116.026 E8.10318
G1 X85.640 Y114.000 E8.29622
G1 X86.139 Y111.974 E8.48925
G1 X87.523 Y110.411 E8.68228
G1 X89.474 Y109.671 E8.87532
G1 X91.294 Y109.892 E9.04488
G1 X91.546 Y109.923 E9.06835 F504.000
G1 X93.264 Y111.108 E9.26138
G1 X94.234 Y112.956 E9.45442
