; generated by Slic3r 1.1.7 on 2015-04-25 at 15:17:34

; perimeters extrusion width = 0.40mm
; infill extrusion width = 0.42mm
; solid infill extrusion width = 0.42mm
; top infill extrusion width = 0.42mm

G21 ; set units to millimeters
M107
M190 S62 ; wait for bed temperature to be reached
M104 S215 ; set temperature
G28 ; home all axes
G1 Z5 F5000 ; lift nozzle

M109 S215 ; wait for temperature to be reached
G90 ; use absolute coordinates
G92 E0
M82 ; use absolute distances for extrusion
G1 F1800.000 E-1.00000
G92 E0
G1 Z0.350 F7800.000
G1 X45.595 Y37.293 F7800.000
G1 E1.00000 F1800.000
G1 X71.714 Y5.360 E4.81572 F1080.000
G1 X74.671 Y2.403 E5.20245
G1 X75.749 Y1.530 E5.33075
G1 X79.255 Y-0.747 E5.71747
G1 X80.491 Y-1.377 E5.84576
G1 X84.395 Y-2.875 E6.23249
G1 X85.735 Y-3.235 E6.36079
G1 X89.865 Y-3.889 E6.74752
G1 X91.250 Y-3.961 E6.87581
G1 X91.396 Y-3.954 E6.88936
G1 X95.425 Y-3.742 E7.26254 F1080.000
G1 X96.795 Y-3.525 E7.39083
G1 X100.834 Y-2.443 E7.77756
G1 X102.129 Y-1.946 E7.90585
G1 X105.855 Y-0.048 E8.29258
G1 X107.018 Y0.708 E8.42090
G1 X110.599 Y3.626 E8.84819
G1 X162.551 Y51.812 E15.40196
G1 X165.202 Y55.086 E15.79153
G1 X184.483 Y79.123 E18.64163
G1 X185.219 Y80.262 E18.76709
G1 X186.169 Y82.125 E18.96045
G1 X186.666 Y83.420 E19.08870
G1 X187.207 Y85.439 E19.28204
G1 X187.424 Y86.810 E19.41044
G1 X187.533 Y88.898 E19.60381
G1 X187.461 Y90.282 E19.73204
G1 X187.134 Y92.347 E19.92538
G1 X186.775 Y93.687 E20.05375
G1 X186.025 Y95.639 E20.24713
G1 X185.396 Y96.875 E20.37541
G1 X183.830 Y99.214 E20.63574
G1 X120.445 Y176.710 E29.89560
G1 X117.489 Y179.667 E30.28232
G1 X116.410 Y180.540 E30.41063
G1 X112.904 Y182.817 E30.79735
G1 X111.668 Y183.447 E30.92565
G1 X107.764 Y184.945 E31.31237
G1 X106.424 Y185.304 E31.44067
G1 X102.295 Y185.958 E31.82739
G1 X100.909 Y186.031 E31.95570
G1 X96.734 Y185.812 E32.34242
G1 X95.364 Y185.595 E32.47071
G1 X91.325 Y184.513 E32.85743
G1 X90.030 Y184.016 E32.98573
G1 X86.305 Y182.118 E33.37245
G1 X85.141 Y181.362 E33.50077
G1 X81.745 Y178.608 E33.90524
G1 X30.879 Y134.921 E40.10685
G1 X30.045 Y134.063 E40.21747
G1 X27.156 Y130.473 E40.64374
G1 X6.940 Y101.807 E43.88806
G1 X5.991 Y99.945 E44.08142
G1 X5.494 Y98.650 E44.20966
G1 X4.953 Y96.631 E44.40301
G1 X4.735 Y95.260 E44.53141
G1 X4.626 Y93.172 E44.72477
G1 X4.699 Y91.788 E44.85300
G1 X5.025 Y89.723 E45.04634
G1 X5.385 Y88.382 E45.17472
G1 X6.134 Y86.430 E45.36809
G1 X6.764 Y85.195 E45.49638
G1 X8.330 Y82.856 E45.75670
G1 X45.557 Y37.340 E51.19529
G1 F1800.000 E50.19529
G92 E0
G1 X150.591 Y79.763 F7800.000
G1 E1.00000 F1800.000
G1 X149.653 Y76.264 E1.33500 F720.000
G1 X152.215 Y73.703 E1.67001
G1 X155.713 Y74.640 E2.00501
G1 X156.651 Y78.139 E2.34002
G1 X154.089 Y80.700 E2.67501
G1 X150.649 Y79.778 E3.00447
G1 X151.110 Y79.244 F7800.000
G1 X150.362 Y76.454 E3.27159 F720.000
G1 X152.405 Y74.412 E3.53871
G1 X155.194 Y75.159 E3.80583
G1 X155.942 Y77.949 E4.07295
G1 X153.899 Y79.991 E4.34007
G1 X151.168 Y79.259 E4.60164
G1 X151.629 Y78.725 F7800.000
G1 X151.071 Y76.644 E4.80088 F504.000
G1 X152.594 Y75.121 E5.00012
G1 X154.675 Y75.678 E5.19935
G1 X155.233 Y77.759 E5.39859
G1 X153.709 Y79.282 E5.59783
G1 X151.687 Y78.740 E5.79151
G1 X151.230 Y78.760 F7800.000
G1 F1800.000 E4.79151
G92 E0
G1 X133.620 Y62.792 F7800.000
G1 E1.00000 F1800.000
G1 X132.683 Y59.294 E1.33501 F720.000
G1 X135.244 Y56.732 E1.67001
G1 X136.207 Y56.990 E1.76224
G1 X138.743 Y57.670 E2.00501
G1 X139.680 Y61.168 E2.34002
G1 X137.119 Y63.730 E2.67502
G1 X133.678 Y62.808 E3.00447
G1 X134.139 Y62.273 F7800.000
G1 X133.392 Y59.483 E3.27160 F720.000
G1 X135.434 Y57.441 E3.53871
G1 X136.043 Y57.604 E3.59701
G1 X138.224 Y58.189 E3.80583
G1 X138.971 Y60.978 E4.07295
G1 X136.929 Y63.021 E4.34008
G1 X134.197 Y62.289 E4.60164
G1 X134.658 Y61.754 F7800.000
G1 X134.101 Y59.673 E4.80088 F504.000
G1 X135.624 Y58.150 E5.00012
G1 X135.878 Y58.218 E5.02447
G1 X137.705 Y58.708 E5.19935
G1 X138.262 Y60.788 E5.39859
G1 X136.739 Y62.312 E5.59783
G1 X134.716 Y61.770 E5.79151
G1 X134.260 Y61.789 F7800.000
G1 X138.789 Y66.634 F7800.000
G1 X140.926 Y64.960 E6.04251 F720.000
G1 X143.595 Y64.471 E6.29350
G1 X144.040 Y64.610 E6.33666
G1 X146.186 Y65.278 E6.54450 F720.000
G1 X148.105 Y67.197 E6.79549
G1 X148.912 Y69.788 E7.04649
G1 X148.423 Y72.457 E7.29748
G1 X146.749 Y74.594 E7.54848
G1 X144.274 Y75.707 E7.79947
G1 X141.566 Y75.543 E8.05047
G1 X139.243 Y74.140 E8.30146
G1 X137.839 Y71.817 E8.55245
G1 X137.676 Y69.108 E8.80345
G1 X138.765 Y66.689 E9.04889
G1 X139.305 Y67.038 F7800.000
G1 X141.194 Y65.557 E9.27091 F720.000
G1 X141.499 Y65.501 E9.29958
G1 X143.555 Y65.124 E9.49292 F720.000
G1 X145.847 Y65.839 E9.71494
G1 X147.544 Y67.536 E9.93695
G1 X148.258 Y69.828 E10.15897
G1 X147.826 Y72.189 E10.38098
G1 X146.345 Y74.078 E10.60300
G1 X144.156 Y75.063 E10.82501
G1 X141.760 Y74.918 E11.04703
G1 X139.706 Y73.677 E11.26904
G1 X138.464 Y71.622 E11.49105
G1 X138.320 Y69.226 E11.71307
G1 X139.280 Y67.092 E11.92953
G1 X139.820 Y67.441 F7800.000
G1 X141.463 Y66.154 E12.12257 F504.000
G1 X143.516 Y65.778 E12.31560
G1 X143.662 Y65.824 E12.32978
G1 X145.508 Y66.399 E12.50863 F504.000
G1 X146.984 Y67.875 E12.70167
G1 X147.605 Y69.867 E12.89470
G1 X147.229 Y71.920 E13.08773
G1 X145.942 Y73.563 E13.28077
G1 X144.038 Y74.420 E13.47380
G1 X141.955 Y74.293 E13.66684
G1 X140.169 Y73.214 E13.85987
G1 X139.089 Y71.428 E14.05290
G1 X138.963 Y69.344 E14.24594
G1 X139.795 Y67.496 E14.43342
G1 F1800.000 E13.43342
G92 E0
G1 X143.858 Y65.475 F7800.000
G1 X133.677 Y76.286 F7800.000
G1 E1.00000 F1800.000
G1 X135.566 Y77.817 E1.22488 F720.000
G1 X137.096 Y79.706 E1.44976
G1 X138.200 Y81.872 E1.67464
G1 X138.830 Y84.221 E1.89952
G1 X138.957 Y86.649 E2.12440
G1 X138.576 Y89.050 E2.34928
G1 X137.705 Y91.320 E2.57415
G1 X136.381 Y93.359 E2.79903
G1 X133.098 Y96.643 E3.22848
G1 X133.098 Y96.425 E3.24860
G1 X92.318 Y131.808 E8.24221
G1 X90.597 Y133.265 E8.45081
G1 X88.253 Y134.180 E8.68354
G1 X85.739 Y134.284 E8.91626
G1 X83.327 Y133.566 E9.14899
G1 X81.556 Y132.301 E9.35030
G1 X81.279 Y132.104 E9.38172
G1 X79.817 Y130.056 E9.61445
G1 X79.099 Y127.644 E9.84717
G1 X79.203 Y125.130 E10.07989
G1 X80.118 Y122.786 E10.31262
G1 X81.575 Y121.065 E10.52122
G1 X116.958 Y80.285 E15.51484
G1 X116.740 Y80.285 E15.53496
G1 X120.023 Y77.002 E15.96440
G1 X122.063 Y75.678 E16.18928
G1 X124.332 Y74.806 E16.41415
G1 X126.734 Y74.426 E16.63903
G1 X126.977 Y74.439 E16.66156
G1 X129.162 Y74.553 E16.86392 F720.000
G1 X131.510 Y75.183 E17.08880
G1 X133.623 Y76.259 E17.30813
G1 X133.329 Y76.822 F7800.000
G1 X135.114 Y78.269 E17.52065 F720.000
G1 X136.560 Y80.054 E17.73317
G1 X137.604 Y82.101 E17.94569
G1 X138.198 Y84.321 E18.15821
G1 X138.319 Y86.616 E18.37074
G1 X137.959 Y88.885 E18.58326
G1 X137.136 Y91.030 E18.79578
G1 X135.884 Y92.957 E19.00830
G1 X133.733 Y95.108 E19.28963
G1 X133.733 Y95.032 E19.29667
G1 X91.904 Y131.325 E24.41877
G1 X90.267 Y132.712 E24.61721
G1 X88.120 Y133.549 E24.83032
G1 X85.818 Y133.644 E25.04342
G1 X83.610 Y132.987 E25.25653
G1 X81.735 Y131.648 E25.46963
G1 X80.396 Y129.773 E25.68274
G1 X79.738 Y127.565 E25.89585
G1 X79.834 Y125.263 E26.10895
G1 X80.671 Y123.116 E26.32206
G1 X82.058 Y121.479 E26.52050
G1 X118.351 Y79.650 E31.64260
G1 X118.275 Y79.650 E31.64963
G1 X120.426 Y77.499 E31.93097
G1 X122.353 Y76.247 E32.14349
G1 X124.498 Y75.424 E32.35601
G1 X124.672 Y75.396 E32.37236
G1 X126.767 Y75.064 E32.56853 F720.000
G1 X129.062 Y75.185 E32.78105
G1 X131.281 Y75.779 E32.99358
G1 X133.275 Y76.795 E33.20055
G1 X132.981 Y77.358 F7800.000
G1 X134.662 Y78.720 E33.40071 F504.000
G1 X136.024 Y80.402 E33.60087
G1 X137.007 Y82.331 E33.80104
G1 X137.567 Y84.421 E34.00120
G1 X137.680 Y86.582 E34.20137
G1 X137.342 Y88.720 E34.40153
G1 X136.566 Y90.740 E34.60169
G1 X135.388 Y92.555 E34.80186
G1 X133.875 Y94.068 E34.99977
G1 X91.490 Y130.843 E40.18981
G1 X89.937 Y132.158 E40.37808
G1 X87.988 Y132.919 E40.57157
G1 X85.898 Y133.005 E40.76505
G1 X83.893 Y132.408 E40.95854
G1 X82.190 Y131.193 E41.15203
G1 X80.975 Y129.490 E41.34551
G1 X80.378 Y127.485 E41.53900
G1 X80.464 Y125.395 E41.73248
G1 X81.225 Y123.446 E41.92597
G1 X82.540 Y121.893 E42.11425
G1 X119.315 Y79.508 E47.30429
G1 X120.828 Y77.995 E47.50220
G1 X122.643 Y76.817 E47.70236
G1 X124.663 Y76.041 E47.90252
G1 X126.801 Y75.703 E48.10268
G1 X126.911 Y75.708 E48.11286
G1 X128.962 Y75.816 E48.30285 F504.000
G1 X131.052 Y76.376 E48.50302
G1 X132.927 Y77.331 E48.69763
G1 X126.742 Y75.346 F7800.000
G1 X121.367 Y67.866 F7800.000
G1 X128.913 Y58.633 E49.80055 F720.000
G1 X131.692 Y55.854 E50.16399
G1 X134.913 Y53.763 E50.51919
G1 X138.498 Y52.387 E50.87439
G1 X142.291 Y51.786 E51.22958
G1 X146.126 Y51.987 E51.58478
G1 X149.836 Y52.981 E51.93998 F720.000
G1 X153.257 Y54.724 E52.29517
G1 X156.242 Y57.141 E52.65037
G1 X158.659 Y60.125 E53.00557
G1 X160.402 Y63.547 E53.36076
G1 X161.396 Y67.257 E53.71596
G1 X161.597 Y71.092 E54.07116
G1 X160.996 Y74.885 E54.42635
G1 X159.620 Y78.470 E54.78155
G1 X157.529 Y81.691 E55.13675
G1 X154.750 Y84.469 E55.50019
G1 X77.878 Y147.301 E64.68297
G1 X76.342 Y148.299 E64.85238
G1 X74.708 Y148.926 E65.01422
G1 X72.980 Y149.199 E65.17604
G1 X71.233 Y149.108 E65.33788
G1 X69.543 Y148.655 E65.49970
G1 X67.983 Y147.860 E65.66157
G1 X66.623 Y146.759 E65.82339
G1 X65.523 Y145.399 E65.98522
G1 X64.728 Y143.840 E66.14708
G1 X64.275 Y142.150 E66.30890
G1 X64.184 Y140.403 E66.47075
G1 X64.457 Y138.675 E66.63256
G1 X65.084 Y137.041 E66.79441
G1 X66.082 Y135.505 E66.96382
G1 X121.329 Y67.912 E75.03812
G1 X120.875 Y67.464 F7800.000
G1 X128.441 Y58.206 E76.14399 F720.000
G1 X131.290 Y55.358 E76.51656
G1 X134.623 Y53.193 E76.88412
G1 X138.375 Y51.763 E77.25554
G1 X142.258 Y51.148 E77.61914 F720.000
G1 X146.226 Y51.356 E77.98669
G1 X150.065 Y52.384 E78.35425
G1 X153.606 Y54.188 E78.72180
G1 X156.694 Y56.689 E79.08936
G1 X159.168 Y59.744 E79.45296
G1 X160.999 Y63.318 E79.82438
G1 X162.027 Y67.157 E80.19194
G1 X162.233 Y71.083 E80.55554
G1 X161.614 Y75.050 E80.92696
G1 X160.190 Y78.760 E81.29451
G1 X158.025 Y82.093 E81.66207
G1 X155.177 Y84.941 E82.03463
G1 X78.253 Y147.815 E91.22357
G1 X76.632 Y148.868 E91.40238
G1 X74.874 Y149.543 E91.57658
G1 X73.014 Y149.838 E91.75076
G1 X71.133 Y149.739 E91.92496
G1 X69.314 Y149.251 E92.09914
G1 X67.635 Y148.396 E92.27335
G1 X66.172 Y147.211 E92.44754
G1 X64.987 Y145.748 E92.62173
G1 X64.132 Y144.069 E92.79594
G1 X63.644 Y142.250 E92.97012
G1 X63.545 Y140.369 E93.14433
G1 X63.840 Y138.509 E93.31850
G1 X64.515 Y136.751 E93.49271
G1 X65.568 Y135.130 E93.67151
G1 X120.837 Y67.510 E101.74903
G1 X120.383 Y67.061 F7800.000
G1 X127.969 Y57.779 E102.85785 F504.000
G1 X130.888 Y54.861 E103.23954
G1 X134.332 Y52.624 E103.61945
G1 X138.167 Y51.152 E103.99937
G1 X142.224 Y50.509 E104.37928
G1 X142.334 Y50.515 E104.38941
G1 X146.326 Y50.724 E104.75919 F504.000
G1 X150.294 Y51.787 E105.13910
G1 X153.954 Y53.652 E105.51902
G1 X157.146 Y56.237 E105.89893
G1 X159.731 Y59.429 E106.27884
G1 X161.596 Y63.089 E106.65875
G1 X162.659 Y67.057 E107.03867
G1 X162.874 Y71.159 E107.41858
G1 X162.248 Y75.108 E107.78836
G1 X162.231 Y75.216 E107.79849
G1 X160.759 Y79.050 E108.17840
G1 X158.522 Y82.495 E108.55832
G1 X155.604 Y85.413 E108.94001
G1 X78.629 Y148.329 E118.13511
G1 X76.922 Y149.437 E118.32331
G1 X75.039 Y150.160 E118.50987
G1 X73.047 Y150.476 E118.69641
G1 X71.033 Y150.370 E118.88297
G1 X69.085 Y149.848 E119.06951
G1 X67.287 Y148.932 E119.25607
G1 X65.720 Y147.663 E119.44262
G1 X64.451 Y146.096 E119.62918
G1 X63.535 Y144.298 E119.81574
G1 X63.013 Y142.350 E120.00227
G1 X62.907 Y140.336 E120.18884
G1 X63.222 Y138.344 E120.37537
G1 X63.945 Y136.461 E120.56193
G1 X65.054 Y134.754 E120.75013
G1 X120.345 Y67.108 E128.83087
G1 X142.611 Y50.804 F7800.000
G1 X139.288 Y58.003 F7800.000
G1 X146.064 Y64.779 E129.71715 F1080.000
G1 X144.752 Y64.370 E129.84425
G1 X139.619 Y59.237 E130.51568
G1 X139.949 Y60.471 E130.63382
G1 X143.516 Y64.037 E131.10036
G1 X142.753 Y64.177 E131.17213
G1 X140.024 Y61.448 E131.52911
G1 X139.572 Y61.900 E131.58818
G1 X141.990 Y64.317 E131.90439
G1 X141.226 Y64.457 E131.97616
G1 X139.121 Y62.351 E132.25159
G1 X138.669 Y62.803 E132.31066
G1 X140.556 Y64.690 E132.55749
G1 X140.050 Y65.087 E132.61699
G1 X138.217 Y63.254 E132.85664
G1 X137.766 Y63.706 E132.91571
G1 X139.543 Y65.483 E133.14818
G1 X139.037 Y65.880 E133.20769
G1 X137.314 Y64.158 E133.43299
G1 X136.191 Y63.937 E133.53889
G1 X138.530 Y66.277 E133.84492
G1 X138.206 Y66.856 E133.90629
G1 X134.957 Y63.607 E134.33128
G1 X126.458 Y62.333 F7800.000
G1 X151.050 Y86.925 E137.54788 F1080.000
G1 X150.553 Y87.331 E137.60724
G1 X126.052 Y62.830 E140.81196
G1 X125.646 Y63.327 E140.87133
G1 X150.056 Y87.737 E144.06417
G1 X149.559 Y88.143 E144.12354
G1 X125.240 Y63.824 E147.30451
G1 X124.833 Y64.321 E147.36388
G1 X149.062 Y88.550 E150.53298
G1 X148.565 Y88.956 E150.59234
G1 X124.427 Y64.818 E153.74957
G1 X124.021 Y65.315 E153.80893
G1 X148.068 Y89.362 E156.95429
G1 X147.571 Y89.768 E157.01365
G1 X137.677 Y79.874 E158.30777
G1 X138.615 Y81.715 F7800.000
G1 X147.074 Y90.174 E159.41426 F1080.000
G1 X146.577 Y90.581 E159.47362
G1 X138.945 Y82.949 E160.47186
G1 X139.269 Y84.176 E160.58920
G1 X146.080 Y90.987 E161.48011
G1 X145.583 Y91.393 E161.53948
G1 X139.319 Y85.129 E162.35885
G1 X139.368 Y86.082 E162.44713
G1 X145.086 Y91.799 E163.19497
G1 X144.589 Y92.205 E163.25433
G1 X139.352 Y86.969 E163.93927
G1 X139.229 Y87.749 E164.01228
G1 X144.092 Y92.612 E164.64836
G1 X143.595 Y93.018 E164.70773
G1 X139.105 Y88.528 E165.29496
G1 X138.959 Y89.285 E165.36622
G1 X143.098 Y93.424 E165.90764
G1 X142.601 Y93.830 E165.96701
G1 X138.708 Y89.937 E166.47619
G1 X138.458 Y90.590 E166.54085
G1 X142.104 Y94.236 E167.01780
G1 X141.607 Y94.643 E167.07716
G1 X138.207 Y91.243 E167.52188
G1 X137.896 Y91.835 E167.58375
G1 X141.110 Y95.049 E168.00410
G1 X140.613 Y95.455 E168.06347
G1 X137.541 Y92.383 E168.46532
G1 X137.185 Y92.930 E168.52571
G1 X140.116 Y95.861 E168.90907
G1 X139.619 Y96.267 E168.96844
G1 X136.830 Y93.478 E169.33331
G1 X136.406 Y93.958 E169.39249
G1 X139.122 Y96.674 E169.74775
G1 X138.625 Y97.080 E169.80711
G1 X135.955 Y94.409 E170.15643
G1 X135.503 Y94.861 E170.21550
G1 X138.128 Y97.486 E170.55888
G1 X137.631 Y97.892 E170.61825
G1 X135.051 Y95.312 E170.95569
G1 X134.600 Y95.764 E171.01476
G1 X137.134 Y98.298 E171.34627
G1 X136.637 Y98.705 E171.40564
G1 X134.148 Y96.216 E171.73121
G1 X133.697 Y96.667 E171.79028
G1 X136.140 Y99.111 E172.10992
G1 X135.643 Y99.517 E172.16928
G1 X133.245 Y97.119 E172.48298
G1 X132.793 Y97.570 E172.54205
G1 X135.146 Y99.923 E172.84981
G1 X134.649 Y100.329 E172.90918
G1 X132.150 Y97.831 E173.23604
G1 X132.634 Y97.411 E173.29525
G1 X132.657 Y97.434 E173.29825
G1 X131.667 Y98.250 E173.41694
G1 X134.152 Y100.736 E173.74204
G1 X133.655 Y101.142 E173.80141
G1 X131.183 Y98.670 E174.12477
G1 X130.700 Y99.089 E174.18398
G1 X133.158 Y101.548 E174.50559
G1 X132.661 Y101.954 E174.56496
G1 X130.216 Y99.509 E174.88481
G1 X129.732 Y99.928 E174.94403
G1 X132.164 Y102.360 E175.26214
G1 X131.667 Y102.767 E175.32150
G1 X129.249 Y100.348 E175.63786
G1 X128.765 Y100.768 E175.69707
G1 X131.171 Y103.173 E176.01168
G1 X130.674 Y103.579 E176.07104
G1 X128.282 Y101.187 E176.38390
G1 X127.798 Y101.607 E176.44312
G1 X130.177 Y103.985 E176.75422
G1 X129.680 Y104.391 E176.81358
G1 X127.315 Y102.026 E177.12294
G1 X126.831 Y102.446 E177.18215
G1 X129.183 Y104.798 E177.48976
G1 X128.686 Y105.204 E177.54912
G1 X126.347 Y102.866 E177.85498
G1 X125.864 Y103.285 E177.91419
G1 X128.189 Y105.610 E178.21829
G1 X127.692 Y106.016 E178.27766
G1 X125.380 Y103.705 E178.58001
G1 X124.897 Y104.124 E178.63923
G1 X127.195 Y106.422 E178.93983
G1 X126.698 Y106.829 E178.99919
G1 X124.413 Y104.544 E179.29804
G1 X123.929 Y104.964 E179.35726
G1 X126.201 Y107.235 E179.65436
G1 X125.704 Y107.641 E179.71373
G1 X123.446 Y105.383 E180.00908
G1 X122.962 Y105.803 E180.06829
G1 X125.207 Y108.047 E180.36189
G1 X124.710 Y108.454 E180.42126
G1 X122.479 Y106.222 E180.71311
G1 X121.995 Y106.642 E180.77232
G1 X124.213 Y108.860 E181.06242
G1 X123.716 Y109.266 E181.12179
G1 X121.511 Y107.061 E181.41013
